X:1
T:Now each flowery bank - Gibbons
T:James Gibb editions
T:#
%%score [ 1 2 { 3 | 4 } 5 ]
L:1/8
Q:1/4=96
M:4/4
K:Bb
V:1 treble nm="Soprano" snm="S"
V:2 treble nm="Alto" snm="A"
V:3 treble-8 nm="Tenor I" snm="T"
V:4 treble-8 
V:5 bass nm="Bass" snm="B"
V:1
"^Now each flowery bank of May""^Orlando Gibbons\n(1583-1625)" z8 | z8 | z8 | z8 | z8 | z8 | %6
w: ||||||
[M:4/4] z8 | z8 | z8 | z4 G4- | G4 G4 | A8- | A4 =B4 | c4 c4 | c8 | z4 d4- | d4 d4 | =B6 A2 | %18
w: |||Now|* each|flow\-|* ery|bank of|May|Woos|* the|streams that|
 G4 G4 | G8 | z8 | z4 z2 d2- | d2 =B2 c3 _B | A (GFE) D2 (G2- | G2 ^F2) G4 | z8 | z8 | z8 | %28
w: glide a-|way,||Woos|* the streams that|glide a\- * * way, a\-|* * way;||||
 A2 (Bc) d2 A2 | =B2 c4 _B2- | B2 A2 G4 | F4 z2 F2- | F2 (GA) B2 F2 | G2 _A4 G2- | G2 (F2 E2) D2- | %35
w: Moun- tains * fanned by|a sweet gale,|* a sweet|gale Loves|* the * hum- ble,|the hum- ble\-|* look\- * ing|
 D2 C2 z2 G2- | G2 (AB) c2 G2 | (A2 B4) A2 | B6 z2 | z8 | z8 | A2 (Bc) d2 A2 | B4 A4 | G4 F2 (D2- | %44
w: * dale loves|* the * hum- ble-|look\- * ing|dale,|||Winds the * lov- ed|leaves do|kiss, winds the|
 DE) (FG ABc)A | B4 A2 D2 | z8 | z8 | z4 d4- | d4 c4- | c4 B4- | B2 A2 G2 G2 | F4 z2 F2- | %53
w: * * lov\- * * * * ed|leaves do kiss;|||Each|* thing|* tast\-|* eth of love's|bliss, each|
 F2 D2 D2 A2 | =B2 (c2 d4) | c2 e4 e2 | d4 d2 d2- | dd c3 B f2- | f2 e2 d4 | z2 c3 c B2- | %60
w: * thing tast- eth|of love's *|bliss. On- ly|I, though blest|* I be by des\-|* ti- ny,|on- ly I,|
 B2 A2 G3 G | C2 DE F2 f2- | f2 e4 d2 | c4 z2 c2- | c2 B2 A2 A2 | B3 c d3 A | B3 (AGF) G2- | %67
w: * though blest I|be To be loved by|* des- ti-|ny, Love|* con- fessed by|her sweet breath, Whose|love is * * life,|
 GG F4 E2 | D4 z4 | z4 d2 c2- | c2 B2 A3 A | B2 c2 F2 G2 | A4 d2 c2- | c2 B2 A3 A | %74
w: * whose hate is|death,|whose love|* is life, whose|hate is death, is|death, whose love|* is life, whose|
 G2 =E2 ^F2 (G2- | G2 ^F2) G3 G | F8 | z4 z2 c2- | cc B2 A4 | z4 z2 A2 | d2 c3 c B2 | A4 G4- | %82
w: hate is death, whose|* * hate is|death,|whose|* hate is death,|whose|dear love is life,|whose hate|
 G4 ^F4 |[Q:1/4=93] G8- |[Q:1/4=89] G8 |[Q:1/4=85] G8 |[Q:1/4=84] G8 |] %87
w: * is|death.||||
V:2
 z8 | z8 | z8 | z4 D4- | D4 D4 | ^F6 G2 |[M:4/4] A8- | A4 (G4- | G4 ^F4) | G8 | =E2 F4 E2 | F8- | %12
w: |||Now|* each|flow- ery|bank|* of||May,|each flow- ery|bank|
 F4 D4 | =E4 C4- | C4 C4 | D6 =E2 | ^F2 (G2 F4) | G4 =F4- | F4 E4 | D8 | C4 D2 (=E2 | ^F2 G4 F2) | %22
w: * of|May Woos|* the|streams that|glide a\- *|way, woos|* the|streams|that glide a\-||
 G4 G2 A2- | A2 d4 =B2 | c3 c =B4 | z8 | z8 | D3 =E FD E2 | ^F2 G4 =F2- | F2 =E2 D4 | C4 z2 C2- | %31
w: way, woos the|* streams that|glide a- way;|||Moun- tains fanned by a|sweet gale, by|* a sweet|gale, moun\-|
 C2 (DE) F2 C2 | D2 (E4 D2) | E4 z4 | z8 | D2 (EF) G2 D2 | (=E2 F4) E2 | F4 z2 F2- | %38
w: * tains * fanned by|a sweet *|gale,||Loves the * hum- ble-|look\- * ing|dale, loves|
 F2 E2 D2 (EF) | G2 (AB) c4- | c2 B2 A2 G2 | (^F2 G4) F2 | G4 z4 | z8 | z4 z2 F2 | D3 E F (GAB) | %46
w: * the hum- ble\- *|look- ing * dale,|* the hum- ble-|look\- * ing|dale,||the|lov- ed leaves do * *|
 A4 G2 =E2 | ^F2 G2 A3 A | G8- | G4 G4 | G8 | z2 C2 C2 c2- | cBA(G FEDC) | D2 G4 F2- | F2 E2 D4 | %55
w: kiss, winds the|lov- ed leaves do|kiss,|* do|kiss;|Each thing tast\-|* eth of love's * * * *|bliss, tast- eth|* of love's|
 E2 ((CD EFG))A | B3 A B2 A2 | G4 F3 G | ABGA B3 B | A2 G2 G4 | z2 F3 F (E2- | E2 D2) C4 | %62
w: bliss. On\- * * * * ly|I, though blest I|be To be|loved by des- ti- ny, by|des- ti- ny,|to be loved|* * by|
 D2 E2 F2 B2- | B2 A2 G2 A2 | ^F2 (G4 F2) | G4 z4 | z8 | z8 | z2 d4 c2- | cB B2 A2 G2 | %70
w: des- ti- ny, Love|* con- fessed by|her sweet *|breath,|||Whose love|* is life, whose hate|
 ^F2 G4 =F2- | FF =E2 D4 | C2 c2 B2 A2- | A2 G2 F2 =E2 | D2 A4 Bc | d2 d4 c2- | cc B4 A2 | %77
w: is death, whose|* hate is death,|whose love is life,|* whose hate is|death, whose love is|life, whose hate|* is death, whose|
 G2 (F4 E2) | D4 z4 | z8 | z4 z2 D2 | F4 (=E2 D2) | F2 =E2 D2 C2 | =E4 D4- | D4 C4- | %85
w: hate is *|death,||whose|love is *|life, whose hate is|death, whose|* hate|
 C4 (=B,2 A,2) | =B,8 |] %87
w: * is *|death.|
V:3
 z8 | z8 | A8- | A4 A4 | ^F6 =E2 | D2 D2 d4- |[M:4/4][K:treble-8] d4 c4- | c4 B4 | A4 d4 | %9
w: ||Now|* each|flow- ery|bank of May,|* now|* each|flow- ery|
 =B2 c2 d2 G2- | G2 (AB) c4- | c2 B2 A2 G2 | F8 | c2 d2 =e2 f2 | g4 (f4- | f2 e2 d4) | d8 | %17
w: bank of May, now|* each * flow\-|* ery bank of|May|Woos the streams that|glide a\-||way,|
 e2 e2 d4- | d2 c2 c4- | c4 B4- | B2 A3 B c2- | c2 B2 A3 A | G2 g2 =e2 f2- | fed (cBA) G2 | %24
w: woos the streams|* that glide|* a\-|* way, the streams|* that glide a-|way, woos the streams|* that glide a\- * * way,|
 A4 G3 A | Bc d2 G2 A2- | A2 d3 c B2- | B2 (A3 B c2) | d4 z2 d2- | d2 (=ef) g2 d2 | =e2 f4 _e2- | %31
w: the streams that|glide a- way, woos the|* streams that glide|* a\- * *|way; moun\-|* tains * fanned by|a sweet gale,|
 e2 d2 c4 | B4 z2 B2- | B2 (cd) e2 B2 | c4 g2 f2- | f2 e2 d3 d | c4 z2 c2- | c2 (de) f2 c2 | %38
w: * a sweet|gale, Loves|* the * hum- ble-|dale, the hum\-|* ble- look- ing|dale, loves|* the * hum- ble-|
 d6 c2 | B2 (cd) e4- | e2 d2 c2 e2 | d8 | z4 d3 A | B2 G2 A2 (F2 | Bc d2) c4 | z2 G4 F(G | %46
w: look- ing|dale, the * hum\-|* ble- look- ing|dale,|Winds the|lov- ed leaves do|* * * kiss,|winds the lov\-|
 AB) c2 B2 A2- | A2 G4 ^F2 | G4 G4 | e8 | d8 | =e2 f4 (ed) | c2 d3 (cBA) | B2 (AG) A4 | G8 | z8 | %56
w: * * ed leaves do|* kiss, do|kiss; Each|thing|tast-|eth of love's *|bliss, of love's * *|bliss, of * love's|bliss.||
 z8 | z8 | z2 g3 g f2- | f2 e2 d2 e2 | d2 c3 B G2 | A2 B4 A2 | B2 G2 F2 G2- | G2 (AB) c3 B | %64
w: ||On- ly I,|* though blest I|be To be loved|by des- ti-|ny, Love con- fessed|* by * her sweet|
 A2 (Bc) d2 D2 | G3 A Bc d2- | dc B4 (AG) | d4 z2 g2- | g2 f4 e2 | d4 z4 | z8 | z4 z2 g2- | %72
w: breath, by * her sweet|breath, whose love is life,|* whose hate is *|death, whose|* love is|life,||whose|
 g2 f4 =e2 | d2 d4 c2 | B2 A4 G2 | d4 G2 e2- | e2 d2 c3 c | B3 B A2 G2 | F3 F f2 =e2 | d2 g4 f2- | %80
w: * love is|life, whose hate|is death, whose|love is life,|* whose hate is|death, whose love is|life, whose hate is|death, whose love|
 f2 =e2 d4 | d2 c4 B2 | A2 G2 A3 A | G8 | z2 D2 =E2 F2 | G8- | G8 |] %87
w: * is life,|whose love is|life, whose hate is|death,|whose hate is|death.||
V:4
 z8 | D8- | D4 D4 | ^F6 G2 | A8- | A4 A4 |[M:4/4][K:treble-8] D8 | D8- | D8 | d2 c4 =B2 | c8 | %11
w: |Now|* each|flow- ery|bank|* of|May,|now||each flow- ery|bank,|
 z4 F4- | F4 F4 | G8- | G4 A4 | B8 | A8 | G8- | G8 | z2 G3 F G2 | =E2 F4 E2 | D8 | z8 | z8 | %24
w: Woos|* the|streams|* that|glide|a-|way,||Woos the streams|that glide a-|way,|||
 z4 z2 d2- | d2 =B2 c3 _B | A (GF=E) D4 | z2 D2 d2 c2- | c2 B2 A3 A | G4 z2 G2- | G2 (AB) c2 G2 | %31
w: woos|* the streams that|glide a\- * * way,|woos the streams|* that glide a-|way; Moun\-|* tains * fanned by|
 A2 B4 A2 | B4 B4 | E4 E4- | E2 D2 C2 F2 | G6 G2 | C8 | z4 z2 F2- | F2 (GA) B2 A2 | G6 (AB) | %40
w: a sweet *|gale, sweet|gale Loves|* the hum- ble-|look- ing|dale,|loves|* the * hum- ble-|look- ing *|
 c6 B2 | A2 G2 A3 A | G4 F2 D2 | GAB ((cde)) f2- | f2 F3 GAF | G ((ABc d=efd)) | f2 =e2 d2 c2- | %47
w: dale, the|hum- ble- look- ing|dale, Winds the|lov- ed leaves do * * kiss,|* winds the lov- ed|leaves do * * * * * *|kiss, do kiss, winds|
 cc B2 A4 | B6 A2 | G8 | z4 G4- | G2 (AB) c3 B | (AG) A2 d4 | z4 z2 d2- | d2 (c4 =B2) | %55
w: * the lov- ed|leaves do|kiss;|Each|* thing * tast- eth|of * love's bliss,|of|* love's *|
 c3 (Bcde)f | g3 f g2 d2 | e4 d4 | c4 B4 | c4 G3 A | B2 F2 G3 G | F8 | z4 z2 d2 | =e2 f3 f e2 | %64
w: bliss. On\- * * * ly|I, though blest I|be To|be loved|by des- ti-|ny, by des- ti-|ny,|Love|con- fessed by her|
 d8 | d4 z4 | z2 d4 (c2- | cB) B2 A2 G2 | B3 A G2 g2- | g2 f4 =e2 | d4 z4 | d2 c3 c B2 | A4 G2 A2 | %73
w: sweet|breath,|Whose love|* * is life, whose|hate is death, whose|* love is|life,|whose love is life,|whose hate is|
 F2 G2 A4 | d2 c3 c B2 | A2 B4 (AG) | A2 F4 f2- | f (e d2) c3 B | A2 d4 c2- | c2 B2 A3 A | %80
w: death, is death,|whose love is life,|whose hate is *|death, whose love|* is * life, is|life, whose hate|* is death, whose|
 D3 =E ^F2 G2 | A6 (Bc) | d8 | z2 g4 f=e | d2 f2 =e4- | e4 d4 | d8 |] %87
w: love is life, whose|hate is *|death,|whose love is|life, whose hate|* is|death.|
V:5
 A,8- | A,4 A,4 | ^F,6 =E,2 | D,8 | z4 D,4- | D,4 D,4 |[M:4/4] ^F,8- | F,4 G,4 | A,8 | G,8 | C,8 | %11
w: Now|* each|flow- ery|bank,|now|* each|flow\-|* ery|bank|of|May|
 F,8 | D,8 | C,6 D,2 | =E,2 (C,2 F,4) | D,4 (B,,2 C,2) | D,6 D,2 | G,,8- | G,,8 | G,,8 | z8 | z8 | %22
w: Woos|the|streams that|glide a\- *|way, that *|glide a-|way|||||
 z8 | z8 | z8 | z2 G,2 =E,2 F,2- | F,E,D, (C,B,,A,,) G,,2 | G,2 F,4 =E,2 | D,8 | G,,6 G,,2 | %30
w: |||woos the streams|* that glide a\- * * way,|that glide a-|way;|Moun- tains|
 C,6 C,C, | F,8 | B,,8 | z4 z2 G,2- | G,2 (A,B,) C2 A,2 | =B,2 C4 _B,2- | B,2 A,2 G,4 | F,8 | %38
w: fanned by a|sweet|gale,|Moun\-|* tains * fanned by|a sweet gale,|* a sweet|gale|
 B,,6 (C,D,) | E,6 D,2 | C,4 C,4 | D,8 | G,, (A,,B,,C,) D, (E, F,2) | E,4 (D,3 C, | B,,4) F,4 | %45
w: Loves the *|hum- ble-|look- ing|dale,|Winds the * * lov- ed *|leaves do *|* kiss,|
 z4 z2 D,2- | D,2 A,,2 B,,2 C,2 | D,6 D,2 | G,,8 | z8 | G,,6 (A,,B,,) | C,8 | F,4 D,4- | D,4 D,4 | %54
w: winds|* the lov- ed|leaves do|kiss;||Each thing *|tast-|eth of|* love's|
 G,,8 | z8 | z8 | z8 | z8 | z8 | z8 | z8 | B,,8 | C,8 | D,8 | z2 G,,2 G,3 =F, | G,2 D,2 E,4 | %67
w: bliss.||||||||Love|con-|fessed|by her sweet|breath, Whose love|
 D,4 C,2 C,2 | B,,4 C,4 | D,8- | D,8 | z8 | z8 | z4 z2 A,,2 | B,,2 C,2 D,4- | D,4 E,4 | F,6 F,2 | %77
w: is life, whose|hate is|death,||||whose|love is life,|* whose|hate is|
 B,,4 C,4 | D,8- | D,8 | D,8 | D,8 | D,8 | G,,6 A,,2 | =B,,4 C,4 | G,,8- | G,,8 |] %87
w: death, is|death,||whose|love|is|life, whose|hate is|death.||

